src/icons/app-switcher.svg

<?xml version="1.0" encoding="UTF-8"?>
<svg id="export" xmlns="http://www.w3.org/2000/svg" width="24" height="24" viewBox="0 0 24 24">
  <defs>
    <style>
      .cls-1 {
        fill: #bb2649;
      }
    </style>
  </defs>
  <g id="icon-app-switcher">
    <path class="cls-1" d="m22,10h-6c-1.1,0-2-.9-2-2V2c0-1.1.9-2,2-2h6c1.1,0,2,.9,2,2v6c0,1.1-.9,2-2,2ZM16,1c-.55,0-1,.45-1,1v6c0,.55.45,1,1,1h6c.55,0,1-.45,1-1V2c0-.55-.45-1-1-1h-6Z"/>
    <path class="cls-1" d="m8,10H2c-1.1,0-2-.9-2-2V2C0,.9.9,0,2,0h6c1.1,0,2,.9,2,2v6c0,1.1-.9,2-2,2ZM2,1c-.55,0-1,.45-1,1v6c0,.55.45,1,1,1h6c.55,0,1-.45,1-1V2c0-.55-.45-1-1-1H2Z"/>
    <path class="cls-1" d="m22,24h-6c-1.1,0-2-.9-2-2v-6c0-1.1.9-2,2-2h6c1.1,0,2,.9,2,2v6c0,1.1-.9,2-2,2Zm-6-9c-.55,0-1,.45-1,1v6c0,.55.45,1,1,1h6c.55,0,1-.45,1-1v-6c0-.55-.45-1-1-1h-6Z"/>
    <path class="cls-1" d="m8,24H2c-1.1,0-2-.9-2-2v-6c0-1.1.9-2,2-2h6c1.1,0,2,.9,2,2v6c0,1.1-.9,2-2,2ZM2,15c-.55,0-1,.45-1,1v6c0,.55.45,1,1,1h6c.55,0,1-.45,1-1v-6c0-.55-.45-1-1-1H2Z"/>
  </g>
</svg>

<svg id="export" xmlns="http://www.w3.org/2000/svg" width="24" height="24" viewBox="0 0 24 24"><defs><style>.cls-1{fill:#3c5583;}</style></defs><g id="icon-app-switcher"><path class="cls-1" d="M22,10H16a2,2,0,0,1-2-2V2a2,2,0,0,1,2-2h6a2,2,0,0,1,2,2V8A2,2,0,0,1,22,10ZM16,1a1,1,0,0,0-1,1V8a1,1,0,0,0,1,1h6a1,1,0,0,0,1-1V2a1,1,0,0,0-1-1Z"/><path class="cls-1" d="M8,10H2A2,2,0,0,1,0,8V2A2,2,0,0,1,2,0H8a2,2,0,0,1,2,2V8A2,2,0,0,1,8,10ZM2,1A1,1,0,0,0,1,2V8A1,1,0,0,0,2,9H8A1,1,0,0,0,9,8V2A1,1,0,0,0,8,1Z"/><path class="cls-1" d="M22,24H16a2,2,0,0,1-2-2V16a2,2,0,0,1,2-2h6a2,2,0,0,1,2,2v6A2,2,0,0,1,22,24Zm-6-9a1,1,0,0,0-1,1v6a1,1,0,0,0,1,1h6a1,1,0,0,0,1-1V16a1,1,0,0,0-1-1Z"/><path class="cls-1" d="M8,24H2a2,2,0,0,1-2-2V16a2,2,0,0,1,2-2H8a2,2,0,0,1,2,2v6A2,2,0,0,1,8,24ZM2,15a1,1,0,0,0-1,1v6a1,1,0,0,0,1,1H8a1,1,0,0,0,1-1V16a1,1,0,0,0-1-1Z"/></g></svg>
